static/logos/sendinblue-wordmark-color.svg

<svg width="135" height="19" viewBox="0 0 135 19" fill="none" xmlns="http://www.w3.org/2000/svg">
<g clip-path="url(#clip0_1_1128)">
<path d="M28.4618 6.06563C27.09 6.06563 26.2113 6.50558 26.2113 7.29012C26.2113 8.07465 27.1343 8.41923 28.5061 8.5585C30.4563 8.71991 32.9849 9.04254 32.9849 11.6162C32.9849 13.4493 31.2053 14.7543 28.4839 14.7543C26.7674 14.7543 25.1174 14.3878 23.6641 12.9213L24.8209 11.4548C25.7921 12.4007 27.1025 12.9279 28.4654 12.9213C29.6444 12.9213 30.8013 12.5767 30.8013 11.6529C30.8013 10.7289 29.9002 10.4247 28.3357 10.2853C26.3631 10.1241 24.0274 9.55204 24.0274 7.35228C24.0274 5.15271 26.4521 4.33515 28.4209 4.33515C29.8928 4.30721 31.331 4.7674 32.4993 5.64025L31.3424 6.94922C30.5097 6.35087 29.4961 6.03997 28.4618 6.06563ZM40.2927 12.8259C41.4051 12.8259 42.6953 12.4594 43.3589 11.7592L44.7975 13.0643C43.7037 14.2118 41.8796 14.7543 40.252 14.7543C36.778 14.7543 34.5496 12.7234 34.5496 9.54484C34.5496 6.52753 36.8632 4.33515 40.2075 4.33515C43.3182 4.33515 45.4612 6.04368 45.4612 9.46774C45.4612 9.74628 45.4388 10.0507 45.4167 10.3513H36.852C37.0376 11.8984 38.3351 12.8259 40.2927 12.8259ZM40.2075 6.18664C38.6019 6.18664 37.208 7.01139 36.8706 8.62085H43.2811C43.155 7.02983 42.0428 6.18664 40.2075 6.18664ZM55.6867 8.9398C55.6867 7.23146 54.6561 6.2453 52.8356 6.2453C52.4367 6.24204 52.0411 6.3185 51.6738 6.46996C51.3063 6.62143 50.9748 6.84469 50.6993 7.12594C50.4213 7.40983 50.2045 7.74521 50.0621 8.11221C49.9196 8.4792 49.8541 8.87033 49.8696 9.26243V14.516H47.6448V4.57699H49.6619L49.7916 5.96288C50.673 4.92434 51.9762 4.32778 53.3474 4.33515C55.8982 4.33515 57.8927 5.8238 57.8927 8.92153V14.5162H55.6683L55.6869 8.9398H55.6867ZM71.3774 14.5162H69.2975L69.1676 12.9433C68.3385 14.1248 66.958 14.8075 65.5046 14.7543C62.4384 14.7543 60.1027 12.8444 60.1027 9.54484C60.1027 6.1645 62.3937 4.33515 65.4601 4.33515C66.7467 4.33515 68.4818 4.91807 69.1676 6.10603V0.45251H71.3923L71.3774 14.516V14.5162ZM62.3085 9.54484C62.3085 11.5574 63.7657 12.8259 65.6455 12.8259C67.472 12.8259 68.9527 11.3618 68.9527 9.55573C68.9527 7.74981 67.472 6.28551 65.6455 6.28551C63.7657 6.28551 62.3085 7.53214 62.3085 9.54484ZM75.4929 0.188724C75.6695 0.17456 75.8473 0.196986 76.0145 0.254532C76.1817 0.312076 76.3345 0.403437 76.4629 0.522607C76.5924 0.64291 76.695 0.78805 76.7641 0.948884C76.8334 1.10972 76.8675 1.28276 76.8647 1.45711C76.8116 2.16768 76.2133 2.71757 75.4929 2.71757C74.7723 2.71757 74.1739 2.16786 74.1211 1.45711C74.1183 1.28276 74.1524 1.10972 74.2217 0.948884C74.2908 0.78805 74.3934 0.64291 74.5229 0.522607C74.6513 0.403437 74.8041 0.312076 74.9713 0.254532C75.1384 0.196986 75.3162 0.17456 75.4929 0.188724ZM76.5867 14.5162H74.362V4.57717H76.5867V14.5162ZM87.602 8.9398C87.602 7.23146 86.575 6.2453 84.7507 6.2453C84.3516 6.24152 83.9561 6.31763 83.5884 6.46893C83.2207 6.62023 82.8887 6.84347 82.6132 7.12483C82.3351 7.40882 82.1185 7.74442 81.9761 8.11164C81.8337 8.47885 81.7686 8.8702 81.7847 9.26243V14.516H79.5601V4.57699H81.5734L81.7031 5.96288C82.586 4.92434 83.8903 4.32759 85.2625 4.33515C87.8133 4.33515 89.808 5.8238 89.808 8.92153V14.5162H87.5833L87.602 8.9398ZM94.8689 6.2049C95.5549 5.01694 97.2936 4.33515 98.5766 4.33515C101.62 4.33515 103.938 6.16819 103.938 9.54484C103.938 12.8444 101.45 14.7543 98.558 14.7543C97.227 14.7543 95.7067 14.2118 94.8689 12.9433L94.7428 14.5162H92.6629V0.45251H94.8875L94.8689 6.2049ZM94.9986 9.54484C94.9912 9.98201 95.0743 10.4161 95.2428 10.8214C95.4114 11.2266 95.6619 11.5947 95.9794 11.9036C96.2939 12.2096 96.6695 12.4494 97.0832 12.608C97.4968 12.7667 97.9394 12.8409 98.3836 12.8259C100.315 12.8259 101.721 11.5576 101.721 9.54484C101.721 7.53214 100.308 6.28551 98.3836 6.28551C97.9413 6.27116 97.5007 6.34502 97.0889 6.50256C96.6771 6.66009 96.3026 6.89796 95.9885 7.20157C95.6713 7.50806 95.4204 7.87327 95.2504 8.27572C95.0804 8.67815 94.9948 9.10967 94.9986 9.54484ZM108.587 14.5162H106.362V0.45251H108.587V14.5162H108.587ZM113.711 9.98849C113.711 11.6786 114.72 12.8444 116.584 12.8444C116.98 12.8482 117.373 12.7725 117.738 12.622C118.103 12.4716 118.432 12.2495 118.705 11.9696C118.981 11.6872 119.195 11.3535 119.335 10.9885C119.475 10.6235 119.538 10.2347 119.521 9.84534V4.57699H121.727V14.516H119.736L119.606 13.1451C118.706 14.207 117.362 14.8006 115.961 14.7543C113.366 14.7543 111.512 13.0056 111.512 10.0067V4.57717H113.718L113.711 9.98849ZM129.832 12.8259C130.944 12.8259 132.231 12.4594 132.898 11.7592L134.333 13.0643C133.239 14.2118 131.419 14.7543 129.787 14.7543C126.317 14.7543 124.085 12.7234 124.085 9.54484C124.085 6.52753 126.402 4.33515 129.746 4.33515C132.853 4.33515 134.996 6.04368 134.996 9.46774C134.996 9.74628 134.974 10.0507 134.956 10.3513H126.38C126.576 11.8984 127.881 12.8259 129.832 12.8259H129.832ZM129.747 6.18664C128.137 6.18664 126.743 7.01139 126.41 8.62085H132.816C132.683 7.02983 131.567 6.18664 129.746 6.18664H129.747Z" fill="#091E3F"/>
<path fill-rule="evenodd" clip-rule="evenodd" d="M16.1345 13.5974C15.6414 14.431 14.8362 15.0463 13.8876 15.3142C14.0232 14.8608 14.0924 14.391 14.0933 13.9187C14.0933 11.5667 12.4295 9.59407 10.1962 9.0569C10.6592 8.61579 11.2308 8.2981 11.8562 8.13439C12.3385 8.00648 12.8422 7.97354 13.3377 8.03743C13.8333 8.10135 14.3108 8.26088 14.7423 8.50664C16.5587 9.5343 17.1831 11.8178 16.1345 13.5974ZM8.97897 17.6451C7.9855 17.6451 7.0405 17.2584 6.33937 16.5982C6.80765 16.4862 7.25713 16.3097 7.67423 16.074C9.75243 14.8984 10.6641 12.5014 10.0236 10.3384C11.6138 10.7848 12.7825 12.2192 12.7825 13.9187C12.7825 15.9731 11.0759 17.6451 8.97897 17.6451ZM1.82303 13.5974C1.32639 12.7543 1.19783 11.7612 1.42996 10.8374C1.76303 11.1767 2.14333 11.4688 2.55975 11.7051C3.33359 12.1442 4.21313 12.3756 5.10866 12.3754C5.79966 12.3749 6.48339 12.238 7.11864 11.9731C7.7539 11.7082 8.32755 11.3207 8.80497 10.834C9.20391 12.4057 8.52001 14.1122 7.01892 14.9615C6.44353 15.288 5.78951 15.46 5.12362 15.4599C4.4538 15.4602 3.79581 15.2881 3.2162 14.961C2.63657 14.6339 2.15591 14.1635 1.82284 13.5974H1.82303ZM1.82284 5.50187C2.31598 4.66818 3.12132 4.05289 4.06993 3.78505C3.93406 4.23856 3.86471 4.70849 3.86393 5.1809C3.86393 7.53155 5.52691 9.50368 7.75905 10.0418C6.56923 11.1681 4.7171 11.4422 3.21525 10.5926C2.33519 10.0945 1.70602 9.29118 1.44302 8.32955C1.31234 7.85706 1.27863 7.36408 1.3438 6.87886C1.40898 6.39364 1.57177 5.92572 1.82284 5.50187ZM8.97897 1.45414C9.97282 1.45414 10.9169 1.84042 11.6174 2.50006C11.1496 2.61306 10.7004 2.78986 10.2833 3.02523C9.09996 3.69485 8.25361 4.77526 7.9003 6.06837C7.65815 6.9518 7.66928 7.88298 7.93249 8.76065C6.34297 8.31388 5.17531 6.87965 5.17531 5.1809C5.17531 3.12595 6.88146 1.45414 8.97897 1.45414ZM16.1345 5.50187C16.6318 6.34599 16.7605 7.34026 16.5269 8.26518C16.1946 7.92439 15.8146 7.63113 15.398 7.39413C14.2146 6.72507 12.8364 6.54724 11.5165 6.89367C10.6131 7.1308 9.7945 7.60667 9.15127 8.26868C8.99359 7.65487 8.99893 7.01204 9.1668 6.40078C9.42941 5.43934 10.0588 4.63562 10.9388 4.13775C11.8187 3.64024 12.8436 3.50798 13.825 3.7655C14.8063 4.0232 15.6264 4.63987 16.1345 5.50187ZM17.27 4.85993C16.5869 3.70056 15.484 2.87139 14.1641 2.52496C13.8521 2.4435 13.5329 2.39087 13.2107 2.3678C12.264 1.00386 10.6749 0.169708 8.97897 0.169708C7.22246 0.169708 5.67043 1.04205 4.7491 2.36724C3.06908 2.48825 1.53599 3.41981 0.687743 4.85956C0.00422199 6.01875 -0.176977 7.36941 0.176333 8.66252C0.260399 8.96788 0.373547 9.26494 0.514307 9.5498C-0.217874 11.0353 -0.160694 12.8006 0.687364 14.2398C1.56553 15.73 3.11206 16.6097 4.7438 16.7292C5.6905 18.0943 7.28286 18.9299 8.97878 18.9299C10.7351 18.9299 12.2871 18.0574 13.2083 16.732C14.8883 16.611 16.4214 15.6798 17.2698 14.2398C18.1482 12.7494 18.1527 10.9964 17.4419 9.5522C18.1751 8.06595 18.1183 6.29988 17.2698 4.85993" fill="#0092FF"/>
</g>
<defs>
<clipPath id="clip0_1_1128">
<rect width="135" height="19" fill="white"/>
</clipPath>
</defs>
</svg>

<svg xmlns="http://www.w3.org/2000/svg" width="454.737" height="64" fill="none" viewBox="0 0 135 19"><g clip-path="url(#a)"><path fill="#091E3F" d="M28.462 6.066c-1.372 0-2.25.44-2.25 1.224 0 .785.922 1.13 2.294 1.269 1.95.16 4.479.484 4.479 3.057 0 1.833-1.78 3.138-4.501 3.138-1.717 0-3.367-.366-4.82-1.833l1.157-1.466a5.188 5.188 0 0 0 3.644 1.466c1.18 0 2.336-.344 2.336-1.268s-.9-1.228-2.465-1.368c-1.973-.16-4.309-.733-4.309-2.933 0-2.2 2.425-3.017 4.394-3.017a6.609 6.609 0 0 1 4.078 1.305l-1.157 1.31a4.738 4.738 0 0 0-2.88-.884Zm11.83 6.76c1.113 0 2.403-.367 3.067-1.067l1.438 1.305c-1.093 1.148-2.917 1.69-4.545 1.69-3.474 0-5.702-2.03-5.702-5.21 0-3.016 2.313-5.209 5.658-5.209 3.11 0 5.253 1.709 5.253 5.133 0 .278-.022.583-.044.883h-8.565c.186 1.547 1.483 2.475 3.44 2.475Zm-.084-6.64c-1.606 0-3 .825-3.337 2.435h6.41c-.126-1.591-1.238-2.434-3.073-2.434ZM55.687 8.94c0-1.709-1.03-2.695-2.851-2.695a2.985 2.985 0 0 0-1.162.225 2.922 2.922 0 0 0-1.612 1.642 2.864 2.864 0 0 0-.192 1.15v5.254h-2.225V4.577h2.017l.13 1.386a4.63 4.63 0 0 1 3.555-1.628c2.551 0 4.546 1.489 4.546 4.587v5.594h-2.225l.019-5.576Zm15.69 5.576h-2.08l-.13-1.573a4.282 4.282 0 0 1-3.662 1.811c-3.067 0-5.402-1.91-5.402-5.21 0-3.38 2.29-5.209 5.357-5.209 1.287 0 3.022.583 3.708 1.771V.453h2.224l-.015 14.063ZM62.31 9.545c0 2.012 1.457 3.28 3.337 3.28 1.826 0 3.307-1.463 3.307-3.27 0-1.805-1.481-3.27-3.308-3.27-1.88 0-3.336 1.247-3.336 3.26ZM75.493.189a1.287 1.287 0 0 1 .97.334 1.262 1.262 0 0 1 .402.934 1.37 1.37 0 0 1-1.372 1.26 1.37 1.37 0 0 1-1.372-1.26A1.262 1.262 0 0 1 75.493.19Zm1.094 14.327h-2.225V4.577h2.225v9.94ZM87.602 8.94c0-1.709-1.027-2.695-2.851-2.695-.4-.003-.795.073-1.163.224a2.919 2.919 0 0 0-1.612 1.643 2.857 2.857 0 0 0-.191 1.15v5.254H79.56V4.577h2.013l.13 1.386a4.638 4.638 0 0 1 3.56-1.628c2.55 0 4.545 1.489 4.545 4.587v5.594h-2.225l.019-5.576Zm7.267-2.735c.686-1.188 2.425-1.87 3.708-1.87 3.043 0 5.361 1.833 5.361 5.21 0 3.3-2.488 5.21-5.38 5.21-1.331 0-2.851-.543-3.69-1.812l-.125 1.573h-2.08V.453h2.225l-.02 5.752Zm.13 3.34c-.008.437.075.871.244 1.276a3.256 3.256 0 0 0 1.84 1.787c.414.159.856.233 1.3.218 1.932 0 3.338-1.268 3.338-3.281s-1.413-3.26-3.337-3.26a3.323 3.323 0 0 0-1.295.218 3.257 3.257 0 0 0-1.839 1.773c-.17.402-.255.834-.251 1.269Zm13.588 4.971h-2.225V.453h2.225v14.063Zm5.124-4.528c0 1.69 1.009 2.856 2.873 2.856.396.004.789-.071 1.154-.222a2.886 2.886 0 0 0 1.597-1.633c.14-.366.203-.754.186-1.144V4.577h2.206v9.939h-1.991l-.13-1.37a4.58 4.58 0 0 1-3.645 1.608c-2.595 0-4.449-1.748-4.449-4.747v-5.43h2.206l-.007 5.411Zm16.121 2.838c1.112 0 2.399-.367 3.066-1.067l1.435 1.305c-1.094 1.148-2.914 1.69-4.546 1.69-3.47 0-5.702-2.03-5.702-5.21 0-3.016 2.317-5.209 5.661-5.209 3.107 0 5.25 1.709 5.25 5.133 0 .278-.022.583-.04.883h-8.576c.196 1.547 1.501 2.475 3.452 2.475Zm-.085-6.64c-1.61 0-3.004.825-3.337 2.435h6.406c-.133-1.591-1.249-2.434-3.07-2.434h.001Z"/><path fill="#0092FF" fill-rule="evenodd" d="M16.134 13.597a3.807 3.807 0 0 1-2.246 1.717c.135-.453.204-.923.205-1.395 0-2.352-1.663-4.325-3.897-4.862a3.858 3.858 0 0 1 4.546-.55c1.817 1.027 2.441 3.31 1.392 5.09ZM8.98 17.645a3.86 3.86 0 0 1-2.64-1.047 5.147 5.147 0 0 0 1.335-.524 4.972 4.972 0 0 0 2.35-5.736c1.59.447 2.759 1.881 2.759 3.58 0 2.055-1.707 3.727-3.804 3.727Zm-7.156-4.048a3.672 3.672 0 0 1-.393-2.76 5.165 5.165 0 0 0 3.679 1.538c.69 0 1.374-.137 2.01-.402a5.123 5.123 0 0 0 1.686-1.139 3.7 3.7 0 0 1-1.786 4.127 3.88 3.88 0 0 1-3.803 0 3.755 3.755 0 0 1-1.393-1.364Zm0-8.095A3.807 3.807 0 0 1 4.07 3.785a4.89 4.89 0 0 0-.206 1.396c0 2.35 1.663 4.323 3.895 4.86a3.868 3.868 0 0 1-4.544.552 3.714 3.714 0 0 1-1.871-3.714c.065-.485.228-.953.479-1.377Zm7.156-4.048c.994 0 1.938.386 2.638 1.046-.467.113-.917.29-1.334.525A4.992 4.992 0 0 0 7.9 6.068a4.876 4.876 0 0 0 .032 2.693C6.343 8.314 5.175 6.88 5.175 5.18c0-2.055 1.706-3.727 3.804-3.727Zm7.155 4.048a3.67 3.67 0 0 1 .393 2.763 5.095 5.095 0 0 0-1.129-.87 5.175 5.175 0 0 0-3.881-.501A5.103 5.103 0 0 0 9.15 8.269 3.634 3.634 0 0 1 9.167 6.4a3.712 3.712 0 0 1 1.772-2.263 3.848 3.848 0 0 1 2.886-.373 3.77 3.77 0 0 1 2.31 1.737Zm1.136-.642a5.068 5.068 0 0 0-3.106-2.335 5.262 5.262 0 0 0-.953-.157A5.164 5.164 0 0 0 8.979.17a5.143 5.143 0 0 0-4.23 2.197C3.07 2.488 1.536 3.42.688 4.86a4.89 4.89 0 0 0-.512 3.803c.084.305.198.602.338.887a4.94 4.94 0 0 0 .173 4.69c.879 1.49 2.425 2.37 4.057 2.49a5.169 5.169 0 0 0 4.235 2.2 5.142 5.142 0 0 0 4.23-2.198c1.68-.121 3.212-1.052 4.06-2.492a4.92 4.92 0 0 0 .173-4.688 4.941 4.941 0 0 0-.172-4.692" clip-rule="evenodd"/></g><defs><clipPath id="a"><path fill="#fff" d="M0 0h135v19H0z"/></clipPath></defs></svg>
